Portfolio/img/github.svg

<svg width="22" height="22" viewBox="0 0 22 22" fill="none" xmlns="http://www.w3.org/2000/svg">
<path d="M15 21.027V18.157C15.0375 17.6802 14.9731 17.2008 14.811 16.7508C14.6489 16.3008 14.3929 15.8904 14.06 15.547C17.2 15.197 20.5 14.007 20.5 8.54701C20.4997 7.15083 19.9627 5.80821 19 4.79701C19.4559 3.57551 19.4236 2.22536 18.91 1.02701C18.91 1.02701 17.73 0.677007 15 2.50701C12.708 1.88583 10.292 1.88583 8 2.50701C5.27 0.677007 4.09 1.02701 4.09 1.02701C3.57638 2.22536 3.54414 3.57551 4 4.79701C3.03013 5.81571 2.49252 7.17047 2.5 8.57701C2.5 13.997 5.8 15.187 8.94 15.577C8.611 15.917 8.35726 16.3224 8.19531 16.7669C8.03335 17.2114 7.96681 17.6851 8 18.157V21.027M8 19.027C5 20 2.5 19.027 1 16.027" stroke="white" stroke-width="1.7" stroke-linecap="round" stroke-linejoin="round"/>
</svg>

<svg width="22" height="22" fill="none" xmlns="http://www.w3.org/2000/svg"><path d="M15 21.027v-2.87a3.37 3.37 0 0 0-.94-2.61c3.14-.35 6.44-1.54 6.44-7a5.44 5.44 0 0 0-1.5-3.75 5.07 5.07 0 0 0-.09-3.77S17.73.677 15 2.507a13.38 13.38 0 0 0-7 0c-2.73-1.83-3.91-1.48-3.91-1.48A5.07 5.07 0 0 0 4 4.797a5.44 5.44 0 0 0-1.5 3.78c0 5.42 3.3 6.61 6.44 7a3.37 3.37 0 0 0-.94 2.58v2.87m0-2c-3 .973-5.5 0-7-3" stroke="#fff" stroke-width="1.7" stroke-linecap="round" stroke-linejoin="round"/></svg>
